X:914
T:Roy's Wife
S:LP, Highland Connection
Z:Nigel Gatherer
M:4/4
L:1/8
K:G
B2 BA BABe | ABBG A2 AB | dBBA G2 g2 | geeg edBA :|
B3  d e2 de | g2 eg edBA | BABd e2 de | gedg BA A2 |
BABd e2 de | g2 eg edBg | agea gedg | edBg edBA |]
